X:1
T:What a Savior!
T:What a Savior!
T:Charles Hutchinson Gabriel
T:Charles Hutchinson Gabriel, 1905
T:Public Domain Courtesy of the Cyber Hymnal™
T:Public Domain Courtesy of the Cyber Hymnal™
C:Charles Hutchinson Gabriel
Z:Public Domain
Z:Courtesy of the Cyber Hymnal™
%%score ( 1 2 ) ( 3 4 )
L:1/8
Q:1/4=105
M:4/4
K:Bb
V:1 treble 
V:2 treble 
V:3 bass 
V:4 bass 
V:1
 [Fd][Ec] | [DB][DF][DF][DF] [DF]2 [Dc][DB] | [EB][EA][EA][EA] [EA]2 [Fe][Fd] | %3
w: 1.~What a|Sav- ior Je- sus is! He is|mine, and I am His; He the|
w: 2.~What a|Sav- ior! praise His name, That to|earth for me He came; Not the|
w: 3.~What a|Sav- ior! all the way Walk- ing|with me, day by day, Guid- ing|
w: 4.~What a|Sav- ior! and I know When to|that bright world I go, Saved by|
w: 5.~What a|Sav- ior! how He loves, Ev- ’ry|hour His mer- cy proves; List- en,|
 [Fc][Fc][=Ec][Ec] [Fc]2 [Fc][FB] | [FA][GB][FA][=EG] F2 ||"^Refrain" [DB]>[Ec] | %6
w: price of sin has paid, And for|me a- tone- ment made.||
w: least, but all He gave, My im-|mor- tal soul to save.|What a|
w: by His ho- ly will, Guard- ing|me from ev- ery ill.||
w: His re- deem- ing grace, I shall|see Him face to face.||
w: for He speaks to thee: “Take thy|cross, and fol- low Me!”||
 [Fd]4- [Fd][DF][DG][DF] | [C=E]2 [Ec]4 [Ec]>[Ed] | [Ec]4- [Ec][EA][EG][EF] | %9
w: |||
w: Sav- * ior, what a|Sav- ior, What a|Sav- * ior Je- sus|
w: |||
w: |||
w: |||
 [DF]4- [DF]2 [DB]>[Ec] | [Fd]4- [Fd][DF][DG][DF] | [C=E]2 [Ec]4 [Ec]>[Fd] | e4- ec[FA][EF] | %13
w: ||||
w: is! * I will|praise * Him, ev- er|praise Him, He is|mine, * and I am|
w: ||||
w: ||||
w: ||||
 B4- !fermata![DB]2 |] %14
w: |
w: His! *|
w: |
w: |
w: |
V:2
 x2 | x8 | x8 | x8 | x4 F2 || x2 | x8 | x8 | x8 | x8 | x8 | x8 | (AAAA A2) x2 | DDEE x2 |] %14
V:3
 [B,,B,][B,,B,] | [B,,B,][B,,B,][B,,B,][B,,B,] [B,,B,]2 [B,,B,][B,,B,] | %2
w: ~ ~|~ ~ ~ ~ ~ ~ ~|
 [F,C][F,C][F,C][F,C] [F,C]2 [F,C][F,B,] | [F,A,][F,A,][G,B,][G,B,] [A,C]2 [B,D][B,D] | %4
w: ~ ~ ~ ~ ~ ~ ~|~ ~ ~ ~ ~ ~ ~|
 CC[C,C][C,B,] [F,A,]2 || z2 | z2 [B,,B,]>[B,,B,] [B,,B,]2 [B,,B,]2 | %7
w: ~ ~ ~ ~ ~||What a Sav- ior,|
 [C,B,][C,B,][C,A,][C,A,] [C,G,][C,G,] [C,A,]>[C,B,] | [F,A,][F,A,][F,A,][F,A,] (A,C)[F,B,][F,A,] | %9
w: what a pre- cious Sav- ior, What a|Sav- ior Je- sus is, * What a|
 [B,,B,][B,,B,][D,B,][F,B,] [B,,B,]2 z2 | z2 [B,,B,]>[B,,B,] [B,,B,]2 [B,,B,]2 | %11
w: Sav- ior Je- sus is!|I will praise Him,|
 [C,B,]2 [C,B,]2 [C,A,][C,A,] [F,A,]>[F,B,] | C4- CE[F,C][F,A,] | %13
w: ev- er praise Him, He is|mine, * and I am|
 [B,,B,][B,,B,][B,,A,][B,,G,] !fermata![B,,F,]2 |] %14
w: His. He is mine, and|
V:4
 x2 | x8 | x8 | x8 | CC x4 || x2 | x8 | x8 | x4 F,2 x2 | x8 | x8 | x8 | F,F,F,F, F,2 x2 | x6 |] %14

